app/assets/images/heroicon/outline/clipboard-document-check.svg

<svg width="24" height="24" viewBox="0 0 24 24" fill="none" xmlns="http://www.w3.org/2000/svg">
<path d="M15.75 18.75H18C19.2426 18.75 20.25 17.7426 20.25 16.5V6.10822C20.25 4.97324 19.405 4.01015 18.2739 3.91627C17.9006 3.88529 17.5261 3.85858 17.1505 3.83619M12.375 12.2858C10.9754 13.6113 9.89487 15.2704 9.26076 17.1358L7.5 15.3751M11.3495 3.83619C11.2848 4.04602 11.25 4.26894 11.25 4.5V4.5C11.25 4.91421 11.5858 5.25 12 5.25H16.5C16.9142 5.25 17.25 4.91421 17.25 4.5V4.5C17.25 4.26894 17.2152 4.04602 17.1505 3.83619M11.3495 3.83619C11.6328 2.91757 12.4884 2.25 13.5 2.25H15C16.0116 2.25 16.8672 2.91757 17.1505 3.83619M11.3495 3.83619C10.9739 3.85858 10.5994 3.88529 10.2261 3.91627C9.09499 4.01015 8.25 4.97324 8.25 6.10822V8.25M8.25 8.25H4.875C4.25368 8.25 3.75 8.75368 3.75 9.375V20.625C3.75 21.2463 4.25368 21.75 4.875 21.75H14.625C15.2463 21.75 15.75 21.2463 15.75 20.625V9.375C15.75 8.75368 15.2463 8.25 14.625 8.25H8.25Z" stroke="#0F172A" stroke-width="1.5" stroke-linecap="round" stroke-linejoin="round"/>
</svg>

<svg xmlns="http://www.w3.org/2000/svg" fill="none" viewBox="0 0 24 24" stroke-width="1.5" stroke="currentColor" aria-hidden="true">
  <path stroke-linecap="round" stroke-linejoin="round" d="M15.75 18.75H18a2.25 2.25 0 002.25-2.25V6.108c0-1.135-.845-2.098-1.976-2.192a48.424 48.424 0 00-1.123-.08m-4.776 8.45a12.008 12.008 0 00-3.114 4.85L7.5 15.376m3.85-11.54c-.065.21-.1.433-.1.664v0c0 .414.336.75.75.75h4.5a.75.75 0 00.75-.75v0a2.25 2.25 0 00-.1-.664m-5.8 0A2.251 2.251 0 0113.5 2.25H15c1.012 0 1.867.668 2.15 1.586m-5.8 0c-.376.023-.75.05-1.124.08C9.095 4.01 8.25 4.973 8.25 6.108V8.25m0 0H4.875c-.621 0-1.125.504-1.125 1.125v11.25c0 .621.504 1.125 1.125 1.125h9.75c.621 0 1.125-.504 1.125-1.125V9.375c0-.621-.504-1.125-1.125-1.125H8.25z"/>
</svg>
